dist/svgs/ul.svg

<svg xmlns="http://www.w3.org/2000/svg" viewBox="0 0 512 512"><path d="M0 76h72v72H0V76zm512 0v72H143V76h369zM0 219h72v72H0v-72zm143 0h369v72H143v-72zM0 363h72v71H0v-71zm143 0h369v71H143v-71z"/></svg>

<?xml version="1.0" encoding="UTF-8" standalone="no"?><svg   xmlns:svg="http://www.w3.org/2000/svg"   xmlns="http://www.w3.org/2000/svg"   version="1.1"   width="512"   height="512"   viewBox="0 0 512 512">  <path     d="M0 76H72V148H0V76zM512 76V148H143V76H512zM0 219H72V291H0V219zM143 219H512V291H143V219zM0 363H72V434H0V363zM143 363H512V434H143V363z"     id="ul" /></svg>
